static/assets/template/assets/img/icons/essential/detailed/Charts.svg

<svg height="137" viewBox="0 0 151 137" width="151" xmlns="http://www.w3.org/2000/svg"><g fill="none" fill-rule="evenodd" transform="translate(1 2)"><g transform="translate(30 29)"><g fill-rule="nonzero"><path d="m15.1 81.4h-11.8c-1.3 0-2.4-1.1-2.4-2.4v-76.4c0-1.3 1.1-2.4 2.4-2.4h11.8c1.3 0 2.4 1.1 2.4 2.4v76.4c0 1.3-1.1 2.4-2.4 2.4z"/><path d="m46.7 81.4h-11.8c-1.3 0-2.4-1.1-2.4-2.4v-50.4c0-1.3 1.1-2.4 2.4-2.4h11.8c1.3 0 2.4 1.1 2.4 2.4v50.4c0 1.3-1.1 2.4-2.4 2.4z"/><path d="m78.3 81.4h-11.8c-1.3 0-2.4-1.1-2.4-2.4v-62.3c0-1.3 1.1-2.4 2.4-2.4h11.8c1.3 0 2.4 1.1 2.4 2.4v62.3c0 1.3-1.1 2.4-2.4 2.4z"/><path d="m109.9 81.4h-11.8c-1.3 0-2.4-1.1-2.4-2.4v-28.2c0-1.3 1.1-2.4 2.4-2.4h11.8c1.3 0 2.4 1.1 2.4 2.4v28.2c0 1.3-1.1 2.4-2.4 2.4z"/><path d="m15.6 81.4h-7.6c-1 0-1.9-.8-1.9-1.9v-71.6c0-1 .8-1.9 1.9-1.9h7.6c1 0 1.9.8 1.9 1.9v71.6c0 1-.9 1.9-1.9 1.9z"/><path d="m47.2 81.4h-7.6c-1 0-1.8-.8-1.8-1.8v-44.6c0-1 .8-1.8 1.8-1.8h7.6c1 0 1.8.8 1.8 1.8v44.6c.1 1-.7 1.8-1.8 1.8z"/><path d="m78.9 81.4h-7.5c-1 0-1.8-.8-1.8-1.8v-57.2c0-1 .8-1.8 1.8-1.8h7.5c1 0 1.8.8 1.8 1.8v57.2c0 1-.8 1.8-1.8 1.8z"/><path d="m110.5 81.4h-8.6c-1 0-1.8-.8-1.8-1.8v-22.9c0-1 .8-1.8 1.8-1.8h8.6c1 0 1.8.8 1.8 1.8v22.9c0 1-.8 1.8-1.8 1.8z"/></g><path d="m1 5.7v-3c0-1.3 1.1-2.4 2.4-2.4h11.8c1.3 0 2.4 1.1 2.4 2.4v76.4c0 1.3-1.1 2.4-2.4 2.4h-11.8c-1.3 0-2.4-1.1-2.4-2.4v-55.6" stroke-linecap="round" stroke-linejoin="round" stroke-width="3"/><path d="m1 12.7v-.5" stroke-linecap="round" stroke-linejoin="round" stroke-width="3"/><path d="m46.7 81.4h-11.8c-1.3 0-2.4-1.1-2.4-2.4v-50.4c0-1.3 1.1-2.4 2.4-2.4h11.8c1.3 0 2.4 1.1 2.4 2.4v50.4c0 1.3-1.1 2.4-2.4 2.4z" stroke-linecap="round" stroke-linejoin="round" stroke-width="3"/><path d="m78.3 81.4h-11.8c-1.3 0-2.4-1.1-2.4-2.4v-62.3c0-1.3 1.1-2.4 2.4-2.4h11.8c1.3 0 2.4 1.1 2.4 2.4v62.3c0 1.3-1.1 2.4-2.4 2.4z" stroke-linecap="round" stroke-linejoin="round" stroke-width="3"/><path d="m109.9 81.4h-11.8c-1.3 0-2.4-1.1-2.4-2.4v-28.2c0-1.3 1.1-2.4 2.4-2.4h11.8c1.3 0 2.4 1.1 2.4 2.4v28.2c0 1.3-1.1 2.4-2.4 2.4z" stroke-linecap="round" stroke-linejoin="round" stroke-width="3"/></g><g stroke-linecap="round" stroke-linejoin="round" stroke-width="3"><path d="m36.6.1 35.2 36.6 31.2-24.4 31.2 35.2"/><path d="m135.5 38v10.9h-10.8"/><g transform="translate(0 125)"><path d="m95.6.4-94.7-.3"/><path d="m148.2.6-42-.2"/></g><g transform="translate(8 4)"><path d="m.7 85.4-.2 43.7"/><path d="m.9 14.5-.2 62"/><path d="m1 .8-.1.4"/></g></g></g></svg>

<?xml version="1.0" encoding="UTF-8"?>
<svg width="151px" height="137px" viewBox="0 0 151 137" version="1.1" xmlns="http://www.w3.org/2000/svg" xmlns:xlink="http://www.w3.org/1999/xlink">
    <!-- Generator: Sketch 51.2 (57519) - http://www.bohemiancoding.com/sketch -->
    <title>Charts</title>
    <desc>Created with Sketch.</desc>
    <defs></defs>
    <g id="Page-1" stroke="none" stroke-width="1" fill="none" fill-rule="evenodd">
        <g id="Charts" transform="translate(1.000000, 2.000000)">
            <g id="Group" transform="translate(30.000000, 29.000000)">
                <path d="M15.1,81.4 L3.3,81.4 C2,81.4 0.9,80.3 0.9,79 L0.9,2.6 C0.9,1.3 2,0.2 3.3,0.2 L15.1,0.2 C16.4,0.2 17.5,1.3 17.5,2.6 L17.5,79 C17.5,80.3 16.4,81.4 15.1,81.4 Z" id="Shape" class="fill-neutral" fill-rule="nonzero"></path>
                <path d="M46.7,81.4 L34.9,81.4 C33.6,81.4 32.5,80.3 32.5,79 L32.5,28.6 C32.5,27.3 33.6,26.2 34.9,26.2 L46.7,26.2 C48,26.2 49.1,27.3 49.1,28.6 L49.1,79 C49.1,80.3 48,81.4 46.7,81.4 Z" id="Shape" class="fill-neutral" fill-rule="nonzero"></path>
                <path d="M78.3,81.4 L66.5,81.4 C65.2,81.4 64.1,80.3 64.1,79 L64.1,16.7 C64.1,15.4 65.2,14.3 66.5,14.3 L78.3,14.3 C79.6,14.3 80.7,15.4 80.7,16.7 L80.7,79 C80.7,80.3 79.6,81.4 78.3,81.4 Z" id="Shape" class="fill-neutral" fill-rule="nonzero"></path>
                <path d="M109.9,81.4 L98.1,81.4 C96.8,81.4 95.7,80.3 95.7,79 L95.7,50.8 C95.7,49.5 96.8,48.4 98.1,48.4 L109.9,48.4 C111.2,48.4 112.3,49.5 112.3,50.8 L112.3,79 C112.3,80.3 111.2,81.4 109.9,81.4 Z" id="Shape" class="fill-neutral" fill-rule="nonzero"></path>
                <path d="M15.6,81.4 L8,81.4 C7,81.4 6.1,80.6 6.1,79.5 L6.1,7.9 C6.1,6.9 6.9,6 8,6 L15.6,6 C16.6,6 17.5,6.8 17.5,7.9 L17.5,79.5 C17.5,80.5 16.6,81.4 15.6,81.4 Z" id="Shape" class="fill-primary-300" fill-rule="nonzero"></path>
                <path d="M47.2,81.4 L39.6,81.4 C38.6,81.4 37.8,80.6 37.8,79.6 L37.8,35 C37.8,34 38.6,33.2 39.6,33.2 L47.2,33.2 C48.2,33.2 49,34 49,35 L49,79.6 C49.1,80.6 48.3,81.4 47.2,81.4 Z" id="Shape" class="fill-primary-300" fill-rule="nonzero"></path>
                <path d="M78.9,81.4 L71.4,81.4 C70.4,81.4 69.6,80.6 69.6,79.6 L69.6,22.4 C69.6,21.4 70.4,20.6 71.4,20.6 L78.9,20.6 C79.9,20.6 80.7,21.4 80.7,22.4 L80.7,79.6 C80.7,80.6 79.9,81.4 78.9,81.4 Z" id="Shape" class="fill-primary-300" fill-rule="nonzero"></path>
                <path d="M110.5,81.4 L101.9,81.4 C100.9,81.4 100.1,80.6 100.1,79.6 L100.1,56.7 C100.1,55.7 100.9,54.9 101.9,54.9 L110.5,54.9 C111.5,54.9 112.3,55.7 112.3,56.7 L112.3,79.6 C112.3,80.6 111.5,81.4 110.5,81.4 Z" id="Shape" class="fill-primary-300" fill-rule="nonzero"></path>
                <path d="M1,5.7 L1,2.7 C1,1.4 2.1,0.3 3.4,0.3 L15.2,0.3 C16.5,0.3 17.6,1.4 17.6,2.7 L17.6,79.1 C17.6,80.4 16.5,81.5 15.2,81.5 L3.4,81.5 C2.1,81.5 1,80.4 1,79.1 L1,23.5" id="Shape" class="stroke-primary" stroke-width="3" stroke-linecap="round" stroke-linejoin="round"></path>
                <path d="M1,12.7 L1,12.2" id="Shape" class="stroke-primary" stroke-width="3" stroke-linecap="round" stroke-linejoin="round"></path>
                <path d="M46.7,81.4 L34.9,81.4 C33.6,81.4 32.5,80.3 32.5,79 L32.5,28.6 C32.5,27.3 33.6,26.2 34.9,26.2 L46.7,26.2 C48,26.2 49.1,27.3 49.1,28.6 L49.1,79 C49.1,80.3 48,81.4 46.7,81.4 Z" id="Shape" class="stroke-primary" stroke-width="3" stroke-linecap="round" stroke-linejoin="round"></path>
                <path d="M78.3,81.4 L66.5,81.4 C65.2,81.4 64.1,80.3 64.1,79 L64.1,16.7 C64.1,15.4 65.2,14.3 66.5,14.3 L78.3,14.3 C79.6,14.3 80.7,15.4 80.7,16.7 L80.7,79 C80.7,80.3 79.6,81.4 78.3,81.4 Z" id="Shape" class="stroke-primary" stroke-width="3" stroke-linecap="round" stroke-linejoin="round"></path>
                <path d="M109.9,81.4 L98.1,81.4 C96.8,81.4 95.7,80.3 95.7,79 L95.7,50.8 C95.7,49.5 96.8,48.4 98.1,48.4 L109.9,48.4 C111.2,48.4 112.3,49.5 112.3,50.8 L112.3,79 C112.3,80.3 111.2,81.4 109.9,81.4 Z" id="Shape" class="stroke-primary" stroke-width="3" stroke-linecap="round" stroke-linejoin="round"></path>
            </g>
            <polyline id="Shape" class="stroke-primary" stroke-width="3" stroke-linecap="round" stroke-linejoin="round" points="36.6 0.1 71.8 36.7 103 12.3 134.2 47.5"></polyline>
            <polyline id="Shape" class="stroke-primary" stroke-width="3" stroke-linecap="round" stroke-linejoin="round" points="135.5 38 135.5 48.9 124.7 48.9"></polyline>
            <g id="Group" transform="translate(0.000000, 125.000000)" class="stroke-primary-300" stroke-linecap="round" stroke-linejoin="round" stroke-width="3">
                <path d="M95.6,0.4 L0.9,0.1" id="Shape"></path>
                <path d="M148.2,0.6 L106.2,0.4" id="Shape"></path>
            </g>
            <g id="Group" transform="translate(8.000000, 4.000000)" class="stroke-primary-300" stroke-linecap="round" stroke-linejoin="round" stroke-width="3">
                <path d="M0.7,85.4 L0.5,129.1" id="Shape"></path>
                <path d="M0.9,14.5 L0.7,76.5" id="Shape"></path>
                <path d="M1,0.8 L0.9,1.2" id="Shape"></path>
            </g>
        </g>
    </g>
</svg>
